!!!!SEGMENT: pl-sa--197-a-vi-1--001-004_anonim--requiem-es-domine-jesu-christe.krn
!!!cenid: 17xx:1675
!!!COM: Anonim
!!!COM-rismID: pe30004985
!!!CDT:
!!!CNT:
!!!OPR: Requiem Es
!!!OTL: Domine Jesu Christe
!!!OMV: 004
!!!PDT:
!!!AGN: Sacred; Requiem
!!!YEC: Copyright 2022 Narodowy Instytut Fryderyka Chopina (https://polishscores.org)
!!!YEM: License CC-BY-4.0 (https://creativecommons.org/licenses/by/4.0)
!!!SMS-siglum: PL-SA
!!!SMS-shelfmark: 197/A VI 1
!!!SMS-shelfwork: 001-004 M
!!!SMS-variant:
!!!SMS-altvar:
!!!NIFC-rismSourceID: 1001070179
!!!NIFC-rismChildID: 1001070179
!!!NIFC-islandoraID: none
!!!URL-pdf-islandora:
!!!URL-scan: https://bc.bdsandomierz.pl/dlibra/publication/1533/edition/1501/content @EN{Scan in the Sandomierz Diocese Digital Library} @PL{Skany w portalu Cyfrowa Biblioteka Diecezjalna w Sandomierzu}
!!!IIIF:
!!!ONB-nifc: UWAGA: części Requiem: 1. Requiem, 2. Kirie, 3. Dies irae, 4. Domine Jesu Christe, 5. Sanctus, 6. Osanna, 7. Benedictus, 8. Agnus Dei, 9. Lux aeterna
!!!AIN: 1 alto 1 bass 1 soprn
!!!key: E-
**kern	**text	**kern	**text	**kern	**text
*part3	*	*part2	*	*part1	*
*staff3	*	*staff2	*	*staff1	*
*I"Baſſo	*	*I"Alto	*	*I"Canto÷.	*
*I'B	*	*I'A	*	*I'C	*
*Ibass	*	*Ialto	*	*Isoprn	*
*ICvox	*	*ICvox	*	*ICvox	*
*clefF4	*	*clefC3	*	*clefC1	*
*k[b-e-a-]	*	*k[b-e-a-]	*	*k[b-e-a-]	*
*E-:	*	*E-:	*	*E-:	*
*M4/4	*	*M4/4	*	*M4/4	*
*met(c)	*	*met(c)	*	*met(c)	*
=1	=1	=1	=1	=1	=1
!LO:TX:t=P:problem=brak oznaczenia tempa	!	!LO:TX:t=P:problem=brak oznaczenia tempa	!	!LO:TX:t=P:problem=brak oznaczenia tempa	!
!LO:TX:t=P:problem=przy kluczu BB- B- A- E- AA-	!	!LO:TX:t=P:problem=kolejność znaków e- B- A-	!	!LO:TX:t=P:problem=oznaczenie metryczne C z kropką	!
*all\right 	*	*all\right	*	*all\right	*
*2\right	*	*2\right	*	*2\right	*
1r	.	1r	.	1r	.
=2	=2	=2	=2	=2	=2
1r	.	1r	.	1r	.
=3	=3	=3	=3	=3	=3
1r	.	1r	.	1r	.
=4	=4	=4	=4	=4	=4
1r	.	1r	.	1r	.
=5	=5	=5	=5	=5	=5
1r	.	1r	.	1r	.
=6	=6	=6	=6	=6	=6
1r	.	1r	.	1r	.
=7	=7	=7	=7	=7	=7
8E-\	Do-	1r	.	1r	.
16E-\	-mi-	.	.	.	.
16F\	-ne	.	.	.	.
8G\	Je-	.	.	.	.
8E-\	-su	.	.	.	.
4B-\	Chri-	.	.	.	.
4B-\	-ste	.	.	.	.
=8	=8	=8	=8	=8	=8
8E-\	Do-	1r	.	1r	.
16E-\	-mi-	.	.	.	.
16F\	-ne	.	.	.	.
8G\	Je-	.	.	.	.
8E-\	-su	.	.	.	.
4B-\	Chri-	.	.	.	.
8B-\	-ste	.	.	.	.
8F\	Chri-	.	.	.	.
=9	=9	=9	=9	=9	=9
8G\	-ste	1r	.	1r	.
8c\	Rex	.	.	.	.
8.An\	glo-	.	.	.	.
16B-\	-ri-	.	.	.	.
!LO:TX:a:t=SIC&colon;l&colon;s=-ae	!	!	!	!	!
4B-\	-e	.	.	.	.
4r	.	.	.	.	.
=10	=10	=10	=10	=10	=10
16B-\LL	Li-	1r	.	1r	.
16A-X\	.	.	.	.	.
16B-\	.	.	.	.	.
16c\JJ	.	.	.	.	.
16B-\LL	.	.	.	.	.
16A-\	.	.	.	.	.
16G\	.	.	.	.	.
16F\JJ	.	.	.	.	.
!LO:LB:g=original	!	!	!	!	!
8.E-\	.	.	.	.	.
16E-\	-be-	.	.	.	.
4E-\	-ra	.	.	.	.
=11	=11	=11	=11	=11	=11
16c\LL	Li-	1r	.	1r	.
16B-\	.	.	.	.	.
16c\	.	.	.	.	.
16d\JJ	.	.	.	.	.
16c\LL	.	.	.	.	.
16B-\	.	.	.	.	.
16A-\	.	.	.	.	.
16G\JJ	.	.	.	.	.
8.F\	.	.	.	.	.
16F\	-be-	.	.	.	.
4F\	-ra	.	.	.	.
=12	=12	=12	=12	=12	=12
16B-\LL	li-	1r	.	1r	.
16A-\	.	.	.	.	.
16B-\	.	.	.	.	.
16c\JJ	.	.	.	.	.
16B-\LL	.	.	.	.	.
16A-\	.	.	.	.	.
16G\	.	.	.	.	.
16F\JJ	.	.	.	.	.
8.E-\	.	.	.	.	.
16F\	-be-	.	.	.	.
8G\	-ra	.	.	.	.
(16F\LL	.	.	.	.	.
16E-\JJ)	.	.	.	.	.
=13	=13	=13	=13	=13	=13
16A-X\LL	A-	1r	.	1r	.
16G\	.	.	.	.	.
16A-\	.	.	.	.	.
16B-\JJ	.	.	.	.	.
16A-\LL	.	.	.	.	.
16B-\	.	.	.	.	.
16A-\	.	.	.	.	.
16G\JJ	.	.	.	.	.
!LO:LB:g=original	!	!	!	!	!
8.F\	-ni-	.	.	.	.
16G\	.	.	.	.	.
8A-\L	-mas	.	.	.	.
(16G\L	.	.	.	.	.
16F\JJ)	.	.	.	.	.
=14	=14	=14	=14	=14	=14
16G\LL	O-	1r	.	1r	.
16F\	.	.	.	.	.
16G\	.	.	.	.	.
16A-\JJ	.	.	.	.	.
16G\LL	.	.	.	.	.
16A-\	.	.	.	.	.
16G\	.	.	.	.	.
16F\JJ	.	.	.	.	.
8.E-\	.	.	.	.	.
16F\	-mni-	.	.	.	.
8G\	-um	.	.	.	.
8E-\	fi-	.	.	.	.
=15	=15	=15	=15	=15	=15
8F\	-de-	1r	.	1r	.
16G\	-li-	.	.	.	.
16An\	-um	.	.	.	.
8B-\	de-	.	.	.	.
8E-\	-fun-	.	.	.	.
8F\L	-cto-	.	.	.	.
16G\L	.	.	.	.	.
16E-\JJ	.	.	.	.	.
(8F\L	.	.	.	.	.
8FF/J)	.	.	.	.	.
=16	=16	=16	=16	=16	=16
4BB-/	-rum	1r	.	1r	.
4B-\	de	.	.	.	.
2B-\	poe-	.	.	.	.
=17	=17	=17	=17	=17	=17
8B-\	-nis	1r	.	1r	.
8D/	in-	.	.	.	.
8E-\L	-fer-	.	.	.	.
8F\J	-[[ni]]-	.	.	.	.
!LO:LB:g=original	!	!	!	!	!
8G\	-ni	.	.	.	.
8E-\	-et_de	.	.	.	.
8E-\	pro-	.	.	.	.
8E-\	-fun-	.	.	.	.
=18	=18	=18	=18	=18	=18
2E-\	-do	1r	.	1r	.
8E-\	.	.	.	.	.
8G\L	pro-	.	.	.	.
8F\	.	.	.	.	.
8E-\J	.	.	.	.	.
=19	=19	=19	=19	=19	=19
16A-\LL	-fun-	1r	.	1r	.
16B-\	.	.	.	.	.
16A-\	.	.	.	.	.
16G\JJ	.	.	.	.	.
16F\LL	.	.	.	.	.
16G\	.	.	.	.	.
16F\	.	.	.	.	.
16E-\JJ	.	.	.	.	.
8D/	.	.	.	.	.
8E-\	-do	.	.	.	.
8B-\L	la-	.	.	.	.
8BB-/J	.	.	.	.	.
=20	=20	=20	=20	=20	=20
4E-\	-Cu	1r	.	1r	.
4r	.	.	.	.	.
2rBB	.	.	.	.	.
=21	=21	=21	=21	=21	=21
1r	.	1r	.	1r	.
=22	=22	=22	=22	=22	=22
1r	.	1r	.	1r	.
=23	=23	=23	=23	=23	=23
1r	.	1r	.	1r	.
=24	=24	=24	=24	=24	=24
1r	.	1r	.	1r	.
=25	=25	=25	=25	=25	=25
!	!	!	!	!LO:TX:t=P:problem=brak taktu nr 25	!
1r	.	1r	.	1ryy	.
=26	=26	=26	=26	=26	=26
8E-\	li-	8g\	li-	8ee-\	Li-
16E-\	-be-	16g\	-be-	16ee-\	-be-
16E-\	-ra	16g\	-ra	16ee-\	-ra
8G\	li-	8f\	li-	8ee-\	Li-
16B-\	-be-	16f\	-be-	16dd\	-be-
16B-\	-ra	16f\	-ra	16dd\	-ra
!LO:LB:g=original	!	!	!	!	!
4E-\	e-	4g\	e-	4ee-\	e-
4E-\	-as	4g\	-as	4ee-\	-as
=27	=27	=27	=27	=27	=27
8E-\	li-	8g\	li-	8ee-\	Li-
16E-\	-be-	16g\	-be-	16ee-\	-be-
16E-\	-ra	16g\	-ra	16ee-\	-ra
*	*	*	*ij	*	*
8G\	li-	8f\	li-	8ee-\	Li-
16B-\	-be-	16f\	-be-	16dd\	-be-
16B-\	-ra	16f\	-ra	16dd\	-ra
!	!	!LO:LB:g=original	!	!	!
*	*	*	*Xij	*	*
4E-\	e-	4g\	e-	4ee-\	e-
8E-\	-as	8g\	-as	8ee-\	-as
8G\	de	8g\	de	8b-\	de
=28	=28	=28	=28	=28	=28
(8A-\L	O-	4e-\	O-	4cc\	o-
8F\J)	.	.	.	.	.
8G\	-re	8e-\	-re	8b-\	-re
8A-\	Le-	8f\	le-	8ee-\	Le-
8B-\	-o-	8f\	-o-	8dd\	-o-
8BB-/	-nis	8f\	-nis	8dd\	-nis
8D/	ne	8d\	ne	8b-\	ne
8BB-/	ab-	8f\	ab-	8b-\	ab-
=29	=29	=29	=29	=29	=29
(8E-\L	-ſor-	(8g\L	-ſor-	(8b-\L	-ſor-
8F\J)	.	8f\J)	.	8a-\J)	.
8G\	-be-	8e-\	-be-	8b-\	-be-
!	!	!	!	!LO:LB:g=original	!
8A-\	-at	8f\	-at	8cc\	-at
8B-\	e-	8f\	e-	8dd\	e-
8E-\	-as	8g\	-aſ	(16ee-\LL	-as
.	.	.	.	16g/JJ)	.
8.BB-/	tar-	8.f\	Tar-	8g/	tar-
.	.	.	.	(16f/LL	-ta-
16BB-/	-ta-	16f\	-ta-	16e-/JJ)	.
=30	=30	=30	=30	=30	=30
!	!	!	!	!LO:TX:t=P:global:problem=znak oddechu na 1 polu	!
4E-\	-rus	4g\	-rus	4e-,/	-rus
4r	.	4g\	ne	4b-\	ne
4r	.	8f\L	ca-	4cc\	ca-
.	.	8e-\J	.	.	.
4G\	ne	8d\	-dant	8dd\	-dant
!LO:LB:g=original	!	!	!	!	!
.	.	8d\	ne	8bn\	ne
=31	=31	=31	=31	=31	=31
(8E-\L	Ca-	4e-\	Ca-	4g/	Ca-
8D\J)	.	.	.	.	.
8C/	-dant	8e-\	-dant	8g/	-dant
*	*	*	*ij	*	*
8E-\	ne	8g\	ne	8cc\	ne
4F\	Ca-	4a-\	Ca-	(8a-\L	ca-
.	.	.	.	8g\J)	.
!	!	!	!	!LO:TX:a:t=SIC&colon;l&colon;s=-dant	!
8FF/	-dant	8A-/	-dant	8f/	-dnt
8F\	ne	8a-\	ne	8a-\	ne
!	!	!LO:LB:g=original	!	!	!
=32	=32	=32	=32	=32	=32
(8D/L	Ca-	(8f\L	Ca-	4b-\	Ca-
8C/J)	.	8e-\J)	.	.	.
8BB-/	-dant	8d\	-dant	8b-,\	-dant,
8D/	ne	8f\	ne	8b-\	ne
4E-\	Ca-	4g\	Ca-	(8g/L	ca-
.	.	.	.	8f/J)	.
8EE-/	-dant	8g\	-dant	8e-/	-dant
8E-\	ne	8g\	ne	8g/	ne
=33	=33	=33	=33	=33	=33
4A-X\	Ca-	4e-\	Ca-	(8a-\L	ca-
.	.	.	.	8b-\J)	.
4AAn/	-dant	4e-\	-dant	4cc\	-dant
*	*	*	*Xij	*	*
4BB-/	in	4d\	In	(8b-\L	in
.	.	.	.	8a-\J)	.
4E-\	ob-	4e-\	ob-	(8g/L	ob-
.	.	.	.	8f/J)	.
=34	=34	=34	=34	=34	=34
2BB-/	-ſcu-	4.e-\	-ſcu-	2f/	-ſcu-
.	.	8d\	.	.	.
2EE-/	-rum	2e-\	-ruſ	2g/	-rus
!LO:LB:g=original	!	!	!	!LO:LB:g=original	!
=35||	=35||	=35||	=35||	=35||	=35||
*M3/4	*	*M3/4	*	*M3/4	*
!LO:TX:a:B:t=ſed Signifer\nTacet	!	!LO:TX:t=P:problem=brak oznaczenia tempa	!	!LO:TX:a:B:t=ſed ſignifer tacet\nAlto Solo	!
2.ryy	.	2.r	.	2.ryy	.
=36	=36	=36	=36	=36	=36
2.ryy	.	2.r	.	2.ryy	.
=37	=37	=37	=37	=37	=37
2.ryy	.	2.r	.	2.ryy	.
=38	=38	=38	=38	=38	=38
2.ryy	.	2.r	.	2.ryy	.
=39	=39	=39	=39	=39	=39
2.ryy	.	2.r	.	2.ryy	.
=40	=40	=40	=40	=40	=40
2.ryy	.	4r	.	2.ryy	.
.	.	4r	.	.	.
.	.	4g\	ſed	.	.
=41	=41	=41	=41	=41	=41
2.ryy	.	4.e-\	Si-	2.ryy	.
.	.	8d\	-gni-	.	.
.	.	4c/	-fer	.	.
=42	=42	=42	=42	=42	=42
2.ryy	.	4a-\	ſan-	2.ryy	.
.	.	16g\LL	.	.	.
.	.	16f\JJ	.	.	.
.	.	4g\	-ctus	.	.
.	.	8r	.	.	.
=43	=43	=43	=43	=43	=43
2.ryy	.	16f\LL	ſan-	2.ryy	.
.	.	16g\	.	.	.
.	.	16e-\	.	.	.
.	.	16d\JJ	.	.	.
.	.	4e-\	-ctus	.	.
.	.	4r	.	.	.
!	!	!LO:LB:g=original	!	!	!
=44	=44	=44	=44	=44	=44
2.ryy	.	4d\	ſan-	2.ryy	.
.	.	8f\L	.	.	.
.	.	8e-\	.	.	.
.	.	8d\	.	.	.
.	.	8c\J	.	.	.
=45	=45	=45	=45	=45	=45
2.ryy	.	4Bn/	.	2.ryy	.
.	.	8g\L	.	.	.
.	.	8f\	.	.	.
.	.	8e-\	.	.	.
.	.	8d\J	.	.	.
=46	=46	=46	=46	=46	=46
2.ryy	.	16e-\LL	.	2.ryy	.
.	.	16g\	.	.	.
.	.	16f\	.	.	.
.	.	16a-\JJ	.	.	.
.	.	16g\LL	.	.	.
.	.	16b-\	.	.	.
.	.	16a-\	.	.	.
.	.	16cc\JJ	.	.	.
.	.	8b-\L	.	.	.
.	.	8e-\J	.	.	.
=47	=47	=47	=47	=47	=47
2.ryy	.	16f\LL	-ctus	2.ryy	.
.	.	16g\	.	.	.
.	.	16e-\	.	.	.
.	.	16c\JJ	.	.	.
.	.	4.d\	.	.	.
.	.	8e-\	.	.	.
=48	=48	=48	=48	=48	=48
2.ryy	.	2e-\	.	2.ryy	.
.	.	4r	.	.	.
=49	=49	=49	=49	=49	=49
2.ryy	.	2.r	.	2.ryy	.
=50	=50	=50	=50	=50	=50
2.ryy	.	2.r	.	2.ryy	.
=51	=51	=51	=51	=51	=51
2.ryy	.	2.r	.	2.ryy	.
=52	=52	=52	=52	=52	=52
2.ryy	.	2.r	.	2.ryy	.
=53	=53	=53	=53	=53	=53
2.ryy	.	2.r	.	2.ryy	.
=54	=54	=54	=54	=54	=54
2.ryy	.	2.r	.	2.ryy	.
=55	=55	=55	=55	=55	=55
2.ryy	.	4r	.	2.ryy	.
.	.	4f\	re-	.	.
!	!	!LO:TX:a:t=SIC&colon;l&colon;s=-prae-	!	!	!
.	.	4b-\	-pre-	.	.
=56	=56	=56	=56	=56	=56
2.ryy	.	8g\L	-ſen-	2.ryy	.
.	.	8a-\	.	.	.
.	.	8g\	.	.	.
.	.	8f\	.	.	.
.	.	8e-\	.	.	.
.	.	8f\J	-tes	.	.
!	!	!LO:PB:g=original	!	!	!
=57	=57	=57	=57	=57	=57
2.ryy	.	16d\LL	e-	2.ryy	.
.	.	16e-\	.	.	.
.	.	16c\	.	.	.
.	.	16d\JJ	.	.	.
.	.	4B-/	-as	.	.
.	.	4f\	in	.	.
=58	=58	=58	=58	=58	=58
2.ryy	.	8g\L	lu-	2.ryy	.
.	.	8a-\	.	.	.
.	.	8g\	.	.	.
.	.	8f\J	.	.	.
.	.	(8e-\L	-cem	.	.
.	.	8g\J)	.	.	.
=59	=59	=59	=59	=59	=59
2.ryy	.	8f\L	ſan-	2.ryy	.
.	.	8g\	.	.	.
.	.	8f\	.	.	.
.	.	8e-\	.	.	.
.	.	8d\	.	.	.
.	.	8f\J	.	.	.
=60	=60	=60	=60	=60	=60
2.ryy	.	8e-\L	.	2.ryy	.
.	.	8f\	.	.	.
.	.	8e-\	.	.	.
.	.	8d\	.	.	.
.	.	8c\	.	.	.
.	.	8e-\J	.	.	.
=61	=61	=61	=61	=61	=61
2.ryy	.	8d\L	.	2.ryy	.
.	.	8e-\	.	.	.
.	.	8d\	.	.	.
.	.	8e-\	.	.	.
.	.	8d\	.	.	.
.	.	8e-\J	.	.	.
=62	=62	=62	=62	=62	=62
2.ryy	.	16f\LL	ctam	2.ryy	.
.	.	16g\	.	.	.
.	.	16e-\	.	.	.
.	.	16c\JJ	.	.	.
.	.	4d\	ſan-	.	.
.	.	8.c/L	.	.	.
.	.	16B-/Jk	.	.	.
=63	=63	=63	=63	=63	=63
2.ryy	.	4B-/	-ctam	2.ryy	.
.	.	4d\	re-	.	.
!	!	!LO:TX:a:t=SIC&colon;l&colon;s=-prae-	!	!	!
.	.	4g\	-pre-	.	.
!	!	!LO:LB:g=original	!	!	!
=64	=64	=64	=64	=64	=64
2.ryy	.	8e-\L	-ſen-	2.ryy	.
.	.	8f\	.	.	.
.	.	8e-\	.	.	.
.	.	8d\	.	.	.
.	.	(8c\	-tes	.	.
.	.	8d\J)	.	.	.
=65	=65	=65	=65	=65	=65
2.ryy	.	8.Bn/L	e-	2.ryy	.
.	.	16A-/Jk	.	.	.
.	.	4G/	-as	.	.
.	.	4g\	in	.	.
=66	=66	=66	=66	=66	=66
2.ryy	.	8a-\L	lu-	2.ryy	.
.	.	8b-\	.	.	.
.	.	8a-\	.	.	.
.	.	8g\J	.	.	.
.	.	8f\L	-cem	.	.
.	.	8a-\J	.	.	.
=67	=67	=67	=67	=67	=67
2.ryy	.	8g\L	ſan-	2.ryy	.
.	.	8a-\	.	.	.
.	.	8g\	.	.	.
.	.	8f\	.	.	.
.	.	8e-\	.	.	.
.	.	8g\J	.	.	.
=68	=68	=68	=68	=68	=68
2.ryy	.	8f\L	.	2.ryy	.
.	.	8g\	.	.	.
.	.	8f\	.	.	.
.	.	8e-\	.	.	.
.	.	8d\	.	.	.
.	.	8f\J	.	.	.
=69	=69	=69	=69	=69	=69
2.ryy	.	8e-\L	.	2.ryy	.
.	.	8f\	.	.	.
.	.	8e-\	.	.	.
.	.	8f\	.	.	.
.	.	8e-\	.	.	.
.	.	8f\J	.	.	.
=70	=70	=70	=70	=70	=70
2.ryy	.	16g\LL	ctam	2.ryy	.
.	.	16a-\	.	.	.
.	.	16e-\	.	.	.
.	.	16c\JJ	.	.	.
.	.	4e-\	ſan-	.	.
.	.	8.d\L	.	.	.
.	.	16c\Jk	.	.	.
=71	=71	=71	=71	=71	=71
2.ryy	.	2.c/	-ctam	2.ryy	.
=72	=72	=72	=72	=72	=72
2.ryy	.	2.r	.	2.ryy	.
=73	=73	=73	=73	=73	=73
2.ryy	.	2.r	.	2.ryy	.
=74	=74	=74	=74	=74	=74
2.ryy	.	2.r	.	2.ryy	.
=75	=75	=75	=75	=75	=75
2.ryy	.	2.r	.	2.ryy	.
=76	=76	=76	=76	=76	=76
2.ryy	.	2.r	.	2.ryy	.
=77	=77	=77	=77	=77	=77
2.ryy	.	2.r	.	2.ryy	.
!	!	!LO:LB:g=original	!	!	!
=78||	=78||	=78||	=78||	=78||	=78||
*M4/4	*	*M4/4	*	*M4/4	*
*met(c)	*	*met(c)	*	*met(c)	*
!LO:TX:t=P:problem=brak oznaczenia tempa	!	!	!	!LO:TX:t=P:problem=oznaczenie metryczne C z kropką	!
!LO:TX:t=P:problem=przy kluczu BB- B- A- E- AA-	!	!LO:TX:b:B:t=Presto	!	!LO:TX:a:B:t=Presto.	!
4r	.	1r	.	1r	.
4E-\	Quam	.	.	.	.
4E-\	o-	.	.	.	.
4E-\	-lim	.	.	.	.
=79	=79	=79	=79	=79	=79
4D/	O-	1r	.	1r	.
4BB-/	-lim	.	.	.	.
4C/	A-	.	.	.	.
4D/	-bra-	.	.	.	.
=80	=80	=80	=80	=80	=80
!LO:TX:a:t=SIC&colon;l&colon;s=-hae	!	!	!	!	!
4E-\	-he	2r	.	1r	.
8C/	pro-	.	.	.	.
8C/	-mi-	.	.	.	.
8BB-/	-ſi-	8r	.	.	.
8BB-/	-sti	8r	.	.	.
8E-\	pro-	4e-\	Quam	.	.
8E-\	-mi-	.	.	.	.
=81	=81	=81	=81	=81	=81
8C/	-ſi-	4e-\	O-	4r	.
8D/	-sti	.	.	.	.
8E-\	pro-	4e-\	-lim	4b-\	Quam
8E-\	-mi-	.	.	.	.
8BB-/	-ſi-	4d\	O-	4b-\	o-
8BB-/	-sti	.	.	.	.
4r	.	4B-/	-lim	4b-\	-lim
=82	=82	=82	=82	=82	=82
4r	.	4c\	A-	4a-\	o-
8r	.	4d\	-bra-	4f/	-lim
8B-\	quam	.	.	.	.
!	!	!LO:TX:a:t=SIC&colon;l&colon;s=-hae	!	!	!
8E-\	o-	4e-\	-he	4g/	a-
8G\	-lim	.	.	.	.
8C/	a-	8e-\	pro-	4an\	-bra-
8F\	-bra-	8c/	-mi-	.	.
!LO:LB:g=original	!	!	!	!	!
=83	=83	=83	=83	=83	=83
!	!	!	!	!LO:TX:a:t=SIC&colon;l&colon;s=-hae	!
4BB-/	-he	8d\	-ſi-	4b-,\	-e
.	.	8d\	-ſti	.	.
8G\	pro-	8g\	pro-	8dd\	pro-
8F\	-mi-	8g\	-mi-	8dd\	-mi-
8E-\	-si-	8g\	-ſi-	8ee-\	-ſi-
8C/	-sti	8g\	-sti	8ee-\	-sti
8E-\	pro-	8g\	pro-	8ee-\	pro-
8F\	-mi-	8a-\	-mi-	8dd\	-mi-
=84	=84	=84	=84	=84	=84
8G\	-ſi-	8g\	-ſi-	8dd\	-ſi-
8G\	-sti	8g\	-sti	8dd\	-sti
4r	.	4g\	quam	8dd\	pro-
.	.	.	.	(16cc\LL	-mi-
.	.	.	.	16dd\JJ)	.
2r	.	4g\	o-	8bn\	-ſi-
.	.	.	.	8dd\	-sti
.	.	4g\	-lim	8ee-\	pro-
.	.	.	.	8cc\	-mi-
!	!	!	!	!LO:LB:g=original	!
=85	=85	=85	=85	=85	=85
1r	.	4e-\	o-	8g/	-ſi-
.	.	.	.	8g/	-sti
.	.	4c\	-lim	8r	.
.	.	.	.	8g/	quam
.	.	4d\	a-	4g/	o-
.	.	4g\	-bra-	4g/	-lim
!	!	!LO:LB:g=original	!	!	!
=86	=86	=86	=86	=86	=86
!	!	!LO:TX:a:t=SIC&colon;l&colon;s=-hae	!	!	!
1r	.	4f\	-he	4cc\	a-
.	.	8g\	pro-	4dd\	-bra-
.	.	8f\	-mi-	.	.
!	!	!	!	!LO:TX:a:t=SIC&colon;l&colon;s=-hae	!
.	.	8e-\	-ſi-	4g,\	-he
.	.	8g\	-sti	.	.
.	.	8g\	pro-	8cc\	pro-
.	.	8f\	-mi-	8cc\	-mi-
=87	=87	=87	=87	=87	=87
4r	.	4g\	-ſi-	4dd\	-si-
4G\	Quam	8g\	-sti	4dd\	-sti
.	.	8g\	quam	.	.
4G\	o-	4g\	o-	4r	.
4G\	-lim	4g\	-lim	4bn\	quam
=88	=88	=88	=88	=88	=88
4E-\	a-	(8g\L	O-	4cc\	o-
.	.	8f\J)	.	.	.
4C/	-bra-	(8e-\L	-lim	4cc\	-lim
.	.	8g\J)	.	.	.
!LO:TX:a:t=SIC&colon;l&colon;s=-hae	!	!	!	!	!
4D/	-he	(8f\L	A-	4a-\	o-
.	.	8d\J)	.	.	.
4E-\	quam	(8g\L	-bra-	4g\	-lim
.	.	8G/J)	.	.	.
=89	=89	=89	=89	=89	=89
!	!	!LO:TX:a:t=SIC&colon;l&colon;s=-hae	!	!	!
4F\	o-	4c/	-e	4a-\	a-
4F\	-lim	4f\	qu(am)	4cc\	-bra-
4D/	O-	4f\	o-	4b-\	-hae
!	!	!LO:TX:a:t=SIC&colon;l&colon;s=-lim	!	!	!
4BB-/	-lim	4f\	-li	4b-\	quam
=90	=90	=90	=90	=90	=90
4C/	A-	4e-\	o-	4a-\	o-
4D/	-bra-	4d\	-lim	4f,/	-lim
!LO:TX:a:t=SIC&colon;l&colon;s=-hae	!	!	!	!	!
4E-\	-he	4.g\	A-	4g/	a-
8G\	pro-	.	.	4b-\	-bra-
8E-\	-mi-	8g\	-bra-	.	.
!LO:LB:g=original	!	!	!	!	!
=91	=91	=91	=91	=91	=91
!	!	!LO:TX:a:t=SIC&colon;l&colon;s=-hae	!	!	!
4c\	-ſi-	4g\	-he	4cc,\	-hae
8F\	-sti	8a-\	pro-	8ee-\	pro-
8F\	quam	8a-\	-mi-	8ee-\	-mi-
!	!	!	!	!LO:LB:g=original	!
4B-\	o-	4a-\	-ſi-	8dd\	-ſi-
.	.	.	.	8dd,\	-sti
4E-\	-lim	4g\	-sti	8dd\	pro-
!	!	!LO:LB:g=original	!	!	!
.	.	.	.	8dd\	-mi-
=92	=92	=92	=92	=92	=92
8.A-\	A-	8g\	pro-	8cc\	-ſi-
.	.	8g\	-mi-	8cc,\	-ſti
16A-\	-bra-	.	.	.	.
!LO:TX:a:t=SIC&colon;l&colon;s=-hae	!	!	!	!	!
4D\	-he	4f\	-ſi-	8cc\	pro-
.	.	.	.	8cc\	-mi-
4G\	pro-	4f\	-sti	8b-\	-ſi-
.	.	.	.	8b-,\	-sti
4C/	-mi-	8f\	pro-	8b-\	pro-
.	.	8f\	-mi-	8b-\	-mi-
=93	=93	=93	=93	=93	=93
4F\	-ſi-	8e-\	-ſi-	8a-\	-ſi-
.	.	8e-\	-sti	8a-,\	-sti
4BB-/	-sti	8d\	pro-	8a-\	pro-
.	.	8d\	-mi-	8a-\	-mi-
8E-\	pro-	4.e-\	-ſi-	4g\	-ſi-
8D/	-mi-	.	.	.	.
8C/	-ſi-	.	.	(8a-X\	-sti
8BB-/	-sti	8f\	-sti	8b-\)	.
=94	=94	=94	=94	=94	=94
8G\	pro-	8f\	pro-	8an\	pro-
8G\	-mi-	8d\	-mi-	8b-\	-mi-
(8E-\L	-ſi-	(8g\L	-ſi-	(8.b-\L	-ſi-
8F\J)	.	8f\J)	.	.	.
.	.	.	.	16an\Jk)	.
4BB-/	-sti	4f\	-sti	8b-\	-sti
.	.	.	.	8dd\	quam
!	!	!LO:TX:a:t=SIC&colon;l&colon;s=quam	!	!	!
4r	.	4b-\	qam	8dd\	o-
.	.	.	.	8dd\	-lim
!	!	!	!	!LO:LB:g=original	!
=95	=95	=95	=95	=95	=95
4r	.	4b-\	o-	8b-\	a-
.	.	.	.	16cc\	-bra-
.	.	.	.	16dd\	-hae
4E-\	quam	4b-\	-lim	8ee-\	pro-
.	.	.	.	8b-\	-mi-
4E-\	o-	4g\	o-	8b-\	-ſi-
.	.	.	.	8b-\	-ſti
4E-\	-lim	4e-\	-lim	4r	.
=96	=96	=96	=96	=96	=96
4D/	O-	4f\	A-	4r	.
4BB-/	-lim	4g\	-bra-	4dd\	Quam
!	!	!LO:TX:a:t=SIC&colon;l&colon;s=-hae	!	!	!
4C/	A-	4a-\	-he	4ee-\	O-
4D/	-bra-	8f\	pro-	(8dd\L	-lim
!LO:LB:g=original	!	!	!	!	!
.	.	8f\	-mi-	8cc\J)	.
=97	=97	=97	=97	=97	=97
!LO:TX:a:t=SIC&colon;l&colon;s=-hae	!	!	!	!	!
4E-\	-he	8g\	-ſi-	8b-\	a-
.	.	8f\	-sti	16b-\	-bra-
.	.	.	.	16b-\	-hae
8G\	pro-	8e-\	pro-	8ee-\	pro-
8E-\	-mi-	8g\	-mi-	8ee-\	-mi-
8A-\	-ſi-	8e-\	-ſi-	8cc\	-si-
8G\	-sti	8e-\	-sti	8cc\	-sti
8A-\	pro-	8a-\	pro-	8ff\	pro-
8F\	-mi-	8a-\	-mi-	8ff\	-mi-
!	!	!LO:LB:g=original	!	!	!
=98	=98	=98	=98	=98	=98
(8B-\L	-ſi-	4f\	-ſi-	4dd\	-si-
8A-\J)	.	.	.	.	.
8B-\	-sti	8f\	-sti	8dd\	-ſti
8E-\	et	8g\	et	8ee-\	et
4BB-/	ſe-	4.g\	ſe-	4.dd-X\	ſe-
8BB-/	-mi-	.	.	.	.
8BB-/	-ni	8g\	-mi-	16dd-\	-mi-
.	.	.	.	16dd-\	-ni
!	!	!	!	!LO:LB:g=original	!
=99	=99	=99	=99	=99	=99
4AA-X/	ſe-	4a-\	-ni	4ee-\	e-
8AA-/	-mi-	8r	.	8ee-\	-ius
8AA-/	-ni	8a-\	et	8cc\	et
8.AAn/	eius	4g-X\	ſe-	4ee-\	ſe-
16AA/	in	.	.	.	.
!LO:TX:a:t=SIC&colon;l&colon;s=Sae-	!	!	!	!	!
4AA/	ſe-	8g-\	-mi-	8cc\	-mi-
.	.	8e-\	-ni	8a-\	-ni
=100	=100	=100	=100	=100	=100
1BB-	-cu-	4d\	e-	4f/	e-
.	.	8e-\	-ius	8g/	-ius
.	.	8e-\	in	8g/	in
!	!	!LO:TX:a:t=SIC&colon;l&colon;s=Sae-	!	!	!
.	.	4.e-\	ſe-	4.f/	ſe-
.	.	8d\	-cu-	8f/	-cu-
=101	=101	=101	=101	=101	=101
!LO:N:vis=0	!	!	!	!LO:N:vis=0	!
1E-	-la	1e-	-la_amen	1g	-la.
==	==	==	==	==	==
*-	*-	*-	*-	*-	*-
!!!system-decoration: [(s1,s2,s3)]
!!!ENC: Andrzej Kubiczek
!!!END: 2020-12-27
!!!ENC: Julita Ruszuk
!!!END: 2022-03-30
